public/formular-icons/numbers/8.svg

<svg style="vertical-align:-.05ex" xmlns="http://www.w3.org/2000/svg" width="1.131ex" height="1.557ex" viewBox="0 -666 500 688" xmlns:xlink="http://www.w3.org/1999/xlink"><defs><path id="a" d="M70 417v77l54 124 124 48q71 0 126-42t55-109q0-30-11-56t-26-42-31-28-26-18-11-8l14-9 28-20q14-10 16-11 75-59 75-149 0-79-58-137T249-22q-90 0-148 51T43 155q0 108 129 180l-18 13q-21 13-27 20-57 49-57 126Zm216-31 6 4 9 6q3 2 10 7t12 10 11 12 11 13 10 16 9 17 5 20 2 22q0 43-29 73t-67 38q-7 1-33 1-41 0-77-26t-37-65q0-23 13-42t26-29 50-32q7-5 11-7l58-38ZM250 21q58 0 100 34t42 82q0 17-5 32t-12 25-22 22-23 18-29 19-27 17q-14 9-30 19t-26 17l-8 5q-6 0-29-17t-48-55-26-82q0-59 43-97t100-39Z"/></defs><g stroke="currentColor" fill="currentColor" stroke-width="0"><use data-c="38" xlink:href="#a" transform="scale(1 -1)"/></g></svg>

<svg style="vertical-align: -0.05ex" xmlns="http://www.w3.org/2000/svg" width="1.131ex" height="1.557ex" role="img" focusable="false" viewBox="0 -666 500 688" xmlns:xlink="http://www.w3.org/1999/xlink"><defs><path id="MJX-30-TEX-N-38" d="M70 417T70 494T124 618T248 666Q319 666 374 624T429 515Q429 485 418 459T392 417T361 389T335 371T324 363L338 354Q352 344 366 334T382 323Q457 264 457 174Q457 95 399 37T249 -22Q159 -22 101 29T43 155Q43 263 172 335L154 348Q133 361 127 368Q70 417 70 494ZM286 386L292 390Q298 394 301 396T311 403T323 413T334 425T345 438T355 454T364 471T369 491T371 513Q371 556 342 586T275 624Q268 625 242 625Q201 625 165 599T128 534Q128 511 141 492T167 463T217 431Q224 426 228 424L286 386ZM250 21Q308 21 350 55T392 137Q392 154 387 169T375 194T353 216T330 234T301 253T274 270Q260 279 244 289T218 306L210 311Q204 311 181 294T133 239T107 157Q107 98 150 60T250 21Z"></path></defs><g stroke="currentColor" fill="currentColor" stroke-width="0" transform="scale(1,-1)"><g data-mml-node="math"><g data-mml-node="mn"><use data-c="38" xlink:href="#MJX-30-TEX-N-38"></use></g></g></g></svg>
